on init
	declare ui_label $label (1,1)
	
	declare ui_switch $sw_3parts
	declare ui_switch $sw_4parts
	declare ui_switch $sw_6parts
		
end on

{note:$MIDI_CHANNEL is zero-based}

on midi_in
	set_text($label, $MIDI_CHANNEL)
	select($MIDI_CHANNEL)
		case 0 to 5 {Each Instruments}
			{through}
			set_text($label, "Through")
		case 6 {1+2}
			ignore_midi
			set_midi(1, $MIDI_COMMAND,$MIDI_BYTE_1,$MIDI_BYTE_2)
			set_midi(2, $MIDI_COMMAND,$MIDI_BYTE_1,$MIDI_BYTE_2)
		case 7 {2+3}
	end select
end on